src/24/panel/synapse-panel.svg

<svg xmlns="http://www.w3.org/2000/svg" width="24" height="24" version="1.1">
 <defs>
  <style id="current-color-scheme" type="text/css">
   .ColorScheme-Text { color:#dfdfdf; } .ColorScheme-Highlight { color:#5294e2; }
  </style>
 </defs>
 <path style="fill:currentColor" class="ColorScheme-Text" d="M 10 3 L 10 5 L 10 5.1894531 A 6.5 6.5 0 0 0 5.1796875 10 L 7.265625 10 A 4.5 4.5 0 0 1 11.5 7 A 4.5 4.5 0 0 1 15.732422 10 L 17.808594 10 A 6.5 6.5 0 0 0 13 5.1894531 L 13 4 L 13 3 L 10 3 z M 11.5 8 A 3.5 3.5 0 0 0 8 11.5 A 3.5 3.5 0 0 0 8.0410156 12 L 8.4003906 12 L 9.0546875 12 L 13.949219 12 A 2.5 2.5 0 0 1 11.5 14 A 2.5 2.5 0 0 1 9.5019531 13 L 8.3417969 13 A 3.5 3.5 0 0 0 11.5 15 A 3.5 3.5 0 0 0 15 11.5 A 3.5 3.5 0 0 0 14.958984 11 L 14.400391 11 L 13.945312 11 L 9.0507812 11 A 2.5 2.5 0 0 1 11.5 9 A 2.5 2.5 0 0 1 13.498047 10 L 14.658203 10 A 3.5 3.5 0 0 0 11.5 8 z M 5.1835938 13 A 6.5 6.5 0 0 0 10 17.814453 L 10 19 L 10 20 L 13 20 L 13 19 L 13 17.808594 A 6.5 6.5 0 0 0 17.816406 13 L 15.736328 13 A 4.5 4.5 0 0 1 11.5 16 A 4.5 4.5 0 0 1 7.2636719 13 L 5.1835938 13 z"/>
</svg>

<svg xmlns="http://www.w3.org/2000/svg" width="24" height="24"><defs><style id="current-color-scheme" type="text/css"></style></defs><path d="M10 3v2.19A6.5 6.5 0 0 0 5.18 10h2.086A4.5 4.5 0 0 1 11.5 7a4.5 4.5 0 0 1 4.232 3h2.077A6.5 6.5 0 0 0 13 5.19V3h-3zm1.5 5A3.5 3.5 0 0 0 8 11.5a3.5 3.5 0 0 0 .041.5h5.908a2.5 2.5 0 0 1-2.449 2 2.5 2.5 0 0 1-1.998-1h-1.16a3.5 3.5 0 0 0 3.158 2 3.5 3.5 0 0 0 3.5-3.5 3.5 3.5 0 0 0-.041-.5H9.051A2.5 2.5 0 0 1 11.5 9a2.5 2.5 0 0 1 1.998 1h1.16A3.5 3.5 0 0 0 11.5 8zm-6.316 5A6.5 6.5 0 0 0 10 17.814V20h3v-2.191A6.5 6.5 0 0 0 17.816 13h-2.08a4.5 4.5 0 0 1-4.236 3 4.5 4.5 0 0 1-4.236-3h-2.08z" fill="currentColor" color="#dfdfdf"/></svg>
